shader SDFGenerateShader(
    vector Normal = vector(0,0,1),
    vector LightDir = vector(1,0,0),
    color LastTexColor = color(0, 0, 0),
    output color FragColor = color(0.0, 0.0, 0.0)
    )
{
    
    float val = dot(Normal, LightDir);
    val = step(0.5, val);
    color result = color(val, val, val);
    result = clamp(result + LastTexColor, 0.0, 1.0);
    FragColor = result;
}